X:1
T: The Curly-Headed Ploughboy
N:
C:aka The Ploughboy
S:Play 3 times
A:
O:
R:
M:4/4
K:D
I:speed 200
%W: A1
% voice 1 (1 lines, 38 notes)
K:D
M:4/4
L:1/16
a2 g2 |f4 a4 d4 f4 |B8 A4 d4 |c2 d2 e2 f2 g4 f4 |f2 a2 g2 f2 e4 a2 g2 |f4 a4 d4 f4 |B8 A4 d4 |c2 d2 e2 f2 g4 c4 |d12 a2 g2 |
%W: A2
% voice 1 (1 lines, 35 notes)
f4 a4 d4 f4 |B8 A4 d4 |c2 d2 e2 f2 g4 f4 |f2 a2 g2 f2 e4 a2 g2 |f4 a4 d4 f4 |B8 A4 d4 |c2 d2 e2 f2 g4 c4 |d12 a4 |
%W: B1
% voice 1 (1 lines, 36 notes)
K:A
g4 g4 g2 e2 f2 g2 |a4 a4 a4 b2 a2 |g4 g4 g2 e2 f2 g2 |a12 b2 a2 |g4 g4 g2 e2 f2 g2 |a4 e4 f4 d4 |c4 B4 e4 G4 |A12 a4 |
%W: B2
% voice 1 (1 lines, 35 notes)
g4 g4 g2 e2 f2 g2 |a4 a4 a4 b2 a2 |g4 g4 g2 e2 f2 g2 |a12 b2 a2 |g4 g4 g2 e2 f2 g2 |a4 e4 f4 d4 |c4 B4 e4 G4 |A12 ||
